X: 41643
T: Up The Southern Shore
R: jig
M: 6/8
K: Dmajor
f2e|:d2B Bcd|A2A AFA|~B3 BAB|g3 f2e|
d2B Bcd|A2A AFA|Bcd efe|1 d2f afe:|2 d3 d2A||
|:d2e f2g|a2f a2f|d2e f2g|a3 afa|
b3 a3|g3 f2e|d2B BAB|g3 f2e:|

